!!!OTL: Tudi huanjia
!!!ARE: Asia, China, Shanxi Zuoquan
!! I, 278
!!!SCT: C2089
!!!YEM: Copyright 1995, estate of Helmut Schaffrath.
**kern
*ICvox
*Ivox
*M2/4
*k[b-e-]
*B-:
{8bb-
16bb-
16bb-
8aa
8gg
=1
8ccc
8ff
4ff
=2
8ccc
16fff
16fff
8eee-
16ddd
16ccc
=3
2bb-}
=4
{8ccc
16fff
16fff
8eee-
16ddd
16fff
=5
8ccc
8ccc
8ccc
8fff
=6
8bb-
16aa
16gg
4ff
=7
8ddd
16ccc
16ddd
8ff
16ee-
16dd
=8
2ff}
==
!!!AGN: Xiaodiao
!! Han
!!!ONB: ESAC (Essen Associative Code) Database: SENGANSU
!!!AMT: simple duple
!!!AIN: vox
!!!EED: Helmut Schaffrath
!!!EEV: 1.0
*-
